content/assets/ustwo-games.svg

<?xml version="1.0" encoding="UTF-8"?>
<svg width="65px" height="36px" viewBox="0 0 65 36" version="1.1" xmlns="http://www.w3.org/2000/svg" xmlns:xlink="http://www.w3.org/1999/xlink">
    <!-- Generator: Sketch 41.2 (35397) - http://www.bohemiancoding.com/sketch -->
    <title>ustwo-games</title>
    <desc>Created with Sketch.</desc>
    <defs></defs>
    <g id="ALL" stroke="none" stroke-width="1" fill="none" fill-rule="evenodd">
        <g id="desktop--contact" transform="translate(-685.000000, -47.000000)" fill="#000000">
            <g id="header">
                <g id="menu-light">
                    <g id="menu" transform="translate(421.000000, 47.000000)">
                        <g id="ustwo-games" transform="translate(264.000000, 0.000000)">
                            <path d="M23.4215225,5.96186047 C22.9832862,5.66155039 22.3348003,5.30290267 22.1677038,5.23683893 C21.4627621,4.95847545 20.9502246,5.04570198 20.4624542,5.3953919 C20.1821215,5.5757795 19.903411,5.88437554 19.5710566,6.28490095 C19.5710566,6.28546081 19.5705158,6.28546081 19.5705158,6.28602067 L11.9890932,14.9374591 L12.7686606,11.9037898 L14.1582113,7.84971576 C14.1582113,7.8491559 14.159401,7.84859604 14.1587521,7.84848407 L14.1477205,7.84669251 L14.1543178,7.82743325 C14.1543178,7.82687339 14.1548586,7.82687339 14.1548586,7.82620155 C14.5633527,6.50291128 14.2592263,6.24683032 13.0818719,5.41700258 L12.9583611,5.32988803 C12.1765225,4.78111111 11.7961481,5.0809733 11.5259817,5.90318691 L10.893178,7.28279931 L4.26912646,13.2424203 L6.19079035,7.59509044 C6.38341098,6.9720758 6.34728785,6.64657192 5.77905158,6.23697674 L5.77883527,6.23697674 L4.45417637,5.30447028 C3.96391847,4.96004307 3.55066556,5.01972438 3.00070715,5.33671835 L1.37873544,6.29788975 C0.877445923,6.58801034 0.757071547,6.88384152 1.16902662,7.17440999 C1.16924293,7.17463394 1.16924293,7.17496985 1.16978369,7.17496985 L2.75152246,8.2883118 L0.125457571,16.2192076 C-0.0681364393,16.8467011 -0.0714891847,17.2929113 0.35906822,17.5964686 L1.8552579,18.6497933 C1.85579867,18.6504651 1.85612313,18.6504651 1.85612313,18.6504651 C2.46437604,19.0786477 2.65883527,18.8903101 2.99746256,18.5622308 C2.99767887,18.561559 2.99767887,18.561559 2.99800333,18.561559 L9.28818636,12.5160551 L8.31264559,15.1394574 L8.31178037,15.1419208 C7.71693844,17.0605685 7.81784526,17.2621189 9.08377704,18.1572265 C9.24654742,18.2722222 9.95700499,18.8009561 10.1261564,18.8494401 C10.7411148,19.0257967 11.1272213,18.6862963 11.6574958,18.0163652 C11.6577121,18.0156934 11.6580366,18.0152455 11.6585774,18.0152455 L20.5527621,7.58893196 L20.4955491,15.7311197 L19.1576955,15.132739 C18.6635441,14.9067786 18.080599,14.6620069 18.0606988,15.4850043 L18.0606988,16.8749182 C18.0606988,17.4917743 18.3828869,18.220267 19.0446755,18.5036693 L19.9405075,18.8899742 C20.6389601,19.2019294 20.9650416,19.288708 21.6714975,18.8888544 C21.715624,18.8639966 23.1706073,18.0122222 23.1994842,17.9948665 C23.8758735,17.5990439 24.0345341,17.2546167 24.076173,16.6781826 L24.0945591,15.9680534 L24.0945591,15.9673816 L24.1721048,7.81478036 C24.1739434,6.73267873 23.9056156,6.29352283 23.4215225,5.96186047" id="Shape"></path>
                            <path d="M64.0724792,5.8642205 C63.7016223,5.41386736 63.41599,5.25677003 62.7918386,5.25677003 C62.087005,5.25677003 61.6055075,5.60175711 61.6055075,5.60175711 L60.3847837,6.35801895 C59.8834942,6.64813953 59.7631198,6.94397071 60.1749667,7.23453919 C60.1752912,7.23476314 60.1752912,7.23509905 60.1758319,7.23509905 L61.7575707,8.34832903 C61.9066057,8.47250646 61.8356572,10.2142377 61.2982446,11.7146684 C60.7406073,13.2716451 60.3519052,13.9889406 59.4733777,15.0561499 C58.6943511,16.002205 57.4456156,16.9106374 56.56698,16.4208699 C55.6264809,15.8962791 55.662604,14.3583376 56.7697671,11.6972007 C57.2429368,10.5602326 58.0313727,9.25385013 58.5045424,8.41416882 C58.9777121,7.57448751 58.7315557,6.84129199 57.9599917,6.23260982 L56.8725125,5.38766581 C56.1196589,4.8786391 55.1043178,4.93037037 54.2514226,5.80767442 L47.1619884,13.5196641 L48.3581614,9.50903531 L48.6791597,8.66554694 C48.6791597,8.66498708 48.6797005,8.66498708 48.6797005,8.66431525 C49.0881947,7.34113695 48.648985,7.08494401 47.4715225,6.25522825 L47.3480116,6.16800172 C46.566173,5.61933678 46.1857987,5.91919897 45.9156323,6.74141258 L45.9004908,6.77455642 L39.243777,13.2143152 L40.9746589,7.75095607 C40.9751997,7.75039621 40.9751997,7.7496124 40.9751997,7.74860465 C41.3071215,6.67624462 40.4480616,6.093764 39.4630033,5.3998708 C38.4781614,4.70631352 37.9871464,5.14994832 37.1732945,6.13015504 C37.1732945,6.1307149 37.1727537,6.1307149 37.1727537,6.13127476 L29.5914393,14.9226787 L32.5385025,5.42248923 C32.8364642,4.45863049 32.6444925,4.1161068 32.1117304,3.7163652 L30.9667138,3.07700258 C30.9667138,3.07700258 49.8360732,3.07711456 49.8363977,3.07700258 C50.2659817,3.07476314 50.3175707,2.8108441 50.0943428,2.35343669 L49.3824792,0.857708872 C49.1369717,0.356856158 48.8695092,0.100663221 48.3590266,0.102342808 L12.3992097,0.102342808 C12.398777,0.102230835 12.3986689,0.102342808 12.3983444,0.102342808 C11.9687604,0.104582257 11.9171714,0.376003445 12.1403993,0.83329888 L12.8522629,2.32913867 C13.0977704,2.82987941 13.3652329,3.0785702 13.8757155,3.07700258 L29.6417304,3.07700258 L25.9149917,15.124565 C25.9146672,15.1256848 25.9144509,15.1262446 25.9141265,15.1270284 C25.3192845,17.0456761 25.4202995,17.2472265 26.6861231,18.1423342 C27.9525957,19.0378898 28.2766223,19.2436951 29.2599501,18.001137 C29.2602745,18.0005771 29.2604908,18.0000172 29.2610316,18.0000172 L37.8447088,7.72553833 L35.1111398,16.1457537 C34.8443261,17.0565375 34.9172213,17.3881998 35.3275541,17.6766408 C35.7828785,17.9981137 36.0726206,18.2015676 36.6156572,18.5840655 C37.1556656,18.9643239 37.3954409,19.0442722 38.0883777,18.3682946 L44.8741181,11.683876 L43.1302579,16.1397071 C42.779193,17.2780189 42.9276872,17.4249268 43.9197754,18.1232989 C43.9215058,18.1244186 43.9229118,18.1254264 43.9245341,18.126882 L44.5441431,18.5626787 C45.1387687,18.9577175 45.5333111,19.0575969 46.1135524,18.3731094 C46.1140932,18.3725495 54.9012063,8.58067183 54.9012063,8.58067183 C54.3879118,9.60398794 53.7797671,10.6174505 53.4275125,11.7135487 C52.6097671,14.2572265 52.3388436,18.2319121 55.6411897,18.9335314 C56.0885108,19.02882 56.6010483,19.1005943 56.976015,19.0899569 C61.6900832,18.9183032 64.2420632,13.999242 64.7807737,10.0937554 C65.1227537,7.61233419 64.6167055,6.52508183 64.0724792,5.8642205" id="Shape"></path>
                            <path d="M58.9071841,28.1129923 C58.6780292,28.2830141 58.5584701,28.5392114 58.5584701,28.8815841 C58.5584701,29.2262859 58.6680659,29.4871413 58.8972208,29.6711375 C59.1263757,29.8528047 59.604612,30.0484462 60.3518562,30.2580622 C61.0911299,30.4676781 61.6570428,30.7634695 62.027676,31.1431073 C62.4062797,31.522745 62.5925926,32.0828854 62.5925926,32.8200349 C62.5925926,33.5606779 62.3534744,34.1592479 61.8772308,34.6215675 C61.3989945,35.0757354 60.7713093,35.308642 59.9941753,35.308642 C58.8583641,35.308642 57.8520752,34.8544741 56.9753086,33.934493 L57.7424794,32.8514772 C58.4727861,33.5851331 59.2369678,33.9577836 60.0240651,33.9577836 C60.4146247,33.9577836 60.7314563,33.8529757 60.9606112,33.655005 C61.1897661,33.4570344 61.3043435,33.1891918 61.3043435,32.8631226 C61.3043435,32.5370533 61.1947477,32.2808561 60.9785451,32.0945308 C60.7593534,31.9082055 60.384735,31.7451709 59.8526971,31.5937816 C59.3196629,31.4423923 58.916151,31.3026483 58.6391725,31.186195 C58.3602013,31.0580964 58.1180941,30.8950617 57.9018915,30.6854458 C57.4734715,30.3011499 57.2612541,29.7188834 57.2612541,28.9386462 C57.2612541,28.1584091 57.5023649,27.5412066 57.9885718,27.1219747 C58.4767714,26.6910974 59.0805447,26.4814815 59.7988955,26.4814815 C60.2572053,26.4814815 60.7254783,26.5629988 61.1738249,26.7493241 C61.6321347,26.924004 62.0306649,27.168556 62.3594524,27.4946252 L61.7118407,28.5659956 C61.5026123,28.333089 61.2136779,28.1467637 60.8450374,28.0070198 C60.4763969,27.8672758 60.1177197,27.7857585 59.7690057,27.7857585 C59.4103285,27.7857585 59.1213941,27.8719339 58.8922392,28.0419558 L58.9071841,28.1129923 Z" id="Path"></path>
                            <polygon id="Path" points="49.6317187 26.4875441 49.6317187 27.8892196 45.4536624 27.8892196 45.4536624 30.2233245 49.191358 30.2233245 49.191358 31.5473986 45.4536624 31.5473986 45.4536624 33.908179 49.7530864 33.908179 49.7530864 35.308642 44.1358025 35.308642 44.1358025 26.4814815 49.6242004 26.4814815"></polygon>
                            <polygon id="Path" points="28.6085093 35.308642 27.2839506 35.308642 27.2839506 26.4814815 29.3407856 26.4814815 31.6991462 32.0257535 34.0618142 26.4814815 36.1111111 26.4814815 36.1111111 35.3074288 34.7973212 35.3074288 34.7973212 28.4043855 32.0620537 34.5188562 31.3265467 34.5188562 28.602048 28.3922536 28.602048 35.283165"></polygon>
                            <path d="M15.7652399,33.301918 L15.0054443,35.308642 L13.6419753,35.308642 L16.9725865,26.4814815 L18.3360555,26.4814815 L21.6666667,35.2965168 L20.3031977,35.2965168 L19.543402,33.2837302 L15.7694032,33.2837302 L15.7652399,33.301918 Z M19.0334022,31.926918 L17.6595251,28.2929894 L16.2856479,31.926918 L19.0334022,31.926918 Z" id="Combined-Shape"></path>
                            <path d="M5.9030459,31.0655132 L7.22222222,31.0655132 L7.22222222,33.9801748 C6.48648649,34.8658196 5.43114543,35.308642 4.06477906,35.308642 C2.90647791,35.308642 1.94122694,34.8939353 1.15830116,34.0645219 C0.386100386,33.2362801 0,32.1877985 0,30.9190772 C0,29.6515274 0.396825397,28.5948455 1.19047619,27.7502028 C1.97340197,26.9043886 2.93865294,26.4814815 4.06477906,26.4814815 C5.18018018,26.4814815 6.11325611,26.8399567 6.86400686,27.5545643 L6.15615616,28.6522484 C5.84834835,28.3675768 5.54483054,28.1719384 5.23380523,28.060647 C4.92277992,27.9505272 4.56456456,27.8966387 4.15594166,27.8966387 C3.37301587,27.8966387 2.70806521,28.1742813 2.17181467,28.730738 C1.63556414,29.2883662 1.36743887,30.0193746 1.36743887,30.9261062 C1.36743887,31.8328377 1.63556414,32.5661891 2.15036465,33.1167883 C2.67589018,33.6673876 3.2979408,33.9485447 4.03796654,33.9485447 C4.77799228,33.9485447 5.4000429,33.7728215 5.9041184,33.4213751 L5.9041184,31.0783996 L5.9030459,31.0655132 Z" id="Path"></path>
                        </g>
                    </g>
                </g>
            </g>
        </g>
    </g>
</svg>

<svg width="65" height="36" viewBox="0 0 65 36" xmlns="http://www.w3.org/2000/svg">
  <title>
    ustwo-games
  </title>
  <g fill-rule="evenodd">
    <path d="M23.422 5.962c-.44-.3-1.087-.66-1.254-.725-.705-.28-1.218-.19-1.706.158-.28.18-.56.49-.89.89l-7.583 8.652.78-3.033 1.38-4.054v-.002h-.01v-.022c.41-1.323.1-1.58-1.07-2.41l-.13-.086c-.78-.55-1.16-.25-1.43.573l-.64 1.38-6.62 5.96 1.92-5.648c.19-.623.15-.948-.41-1.358l-1.32-.933c-.49-.344-.9-.284-1.45.033l-1.62.96c-.51.29-.63.587-.21.877L2.75 8.29.125 16.22c-.193.63-.196 1.075.234 1.378l1.49 1.054c.61.43.8.24 1.14-.088l6.29-6.046-.98 2.622v.01c-.6 1.92-.5 2.12.77 3.018.16.115.87.644 1.04.69.61.178 1-.162 1.53-.832l8.9-10.433-.06 8.14-1.34-.597c-.5-.226-1.08-.47-1.1.352v1.39c0 .617.32 1.345.98 1.63l.89.385c.7.31 1.02.4 1.73 0l1.53-.9c.67-.4.83-.74.87-1.32l.02-.71.075-8.153c.002-1.08-.266-1.52-.75-1.854"/>
    <path d="M64.072 5.864c-.37-.45-.656-.607-1.28-.607-.705 0-1.186.345-1.186.345l-1.22.756c-.503.29-.623.586-.21.877l1.582 1.113c.15.125.078 1.866-.46 3.367-.557 1.557-.946 2.274-1.825 3.34-.78.947-2.027 1.856-2.906 1.366-.94-.52-.904-2.06.203-4.72.473-1.13 1.26-2.44 1.735-3.28.473-.84.227-1.57-.545-2.18l-1.087-.84c-.753-.51-1.77-.46-2.622.42l-7.08 7.71 1.2-4.01.32-.84c.41-1.32-.03-1.58-1.2-2.41l-.12-.08c-.78-.55-1.16-.25-1.43.57l-.01.04-6.655 6.44L41 7.78c.33-1.074-.53-1.656-1.51-2.35-.99-.694-1.48-.25-2.29.73l-7.587 8.79 2.95-9.5c.297-.964.105-1.307-.427-1.707L30.99 3.1h18.87c.43 0 .48-.266.255-.724L49.4.876c-.26-.52-.528-.774-1.038-.77H12.4c-.43 0-.48.27-.258.73l.712 1.493c.246.5.513.75 1.024.74h15.766l-3.727 12.05c-.596 1.92-.495 2.12.77 3.01 1.268.89 1.592 1.1 2.575-.14l8.585-10.27-2.734 8.42c-.26.91-.19 1.24.22 1.53l1.29.91c.54.38.78.46 1.47-.22l6.79-6.68-1.74 4.46c-.35 1.132-.2 1.28.79 1.98h.01l.62.44c.6.394.99.494 1.57-.19l8.78-9.79c-.51 1.024-1.12 2.04-1.47 3.134-.82 2.543-1.09 6.52 2.21 7.22.45.095.96.17 1.34.156 4.72-.17 7.27-5.09 7.81-8.993.348-2.484-.16-3.57-.71-4.23M58.93 28.12c-.23.17-.35.424-.35.77 0 .34.11.602.34.786.23.19.707.38 1.454.59.74.21 1.306.51 1.677.89.38.38.57.94.57 1.677 0 .74-.24 1.34-.716 1.81-.475.452-1.103.685-1.88.685-1.136 0-2.142-.454-3.02-1.374l.768-1.08c.73.733 1.5 1.11 2.28 1.11.39 0 .71-.11.94-.307.23-.2.347-.465.347-.79s-.11-.58-.325-.768c-.22-.19-.597-.35-1.13-.5-.532-.16-.936-.3-1.213-.41-.28-.13-.52-.29-.74-.5-.43-.39-.64-.97-.64-1.75s.24-1.4.73-1.82c.487-.43 1.09-.64 1.81-.64.457 0 .925.08 1.374.26.46.176.857.42 1.185.747l-.65 1.07c-.21-.233-.5-.42-.87-.56-.37-.14-.726-.22-1.075-.22-.36 0-.65.086-.88.256l.015.07zm-9.278-1.63v1.4h-4.18v2.335h3.73v1.324h-3.74v2.36h4.3v1.4h-5.62v-8.83h5.487m-21.02 8.83h-1.33v-8.83h2.052l2.36 5.54 2.37-5.547h2.05v8.83H34.8v-6.9l-2.736 6.12h-.735L28.6 28.4v6.89m-12.84-1.98L15 35.313h-1.36l3.33-8.83h1.365l3.33 8.816h-1.363l-.76-2.02H15.77l-.005.02zm3.27-1.375L17.653 28.3l-1.374 3.634h2.74zM5.9 31.07h1.32v2.915c-.737.887-1.792 1.33-3.158 1.33-1.16 0-2.124-.415-2.907-1.244C.385 33.24 0 32.19 0 30.92s.397-2.325 1.19-3.17c.783-.846 1.75-1.27 2.875-1.27 1.115 0 2.048.36 2.8 1.075l-.71 1.097c-.307-.284-.61-.48-.92-.59-.312-.11-.67-.165-1.08-.165-.782 0-1.447.277-1.983.834-.536.56-.805 1.29-.805 2.2s.27 1.64.783 2.19c.526.55 1.148.84 1.888.84s1.362-.17 1.866-.53v-2.36z"/>
  </g>
</svg>
